flaticon/emoticons/zombie.svg

<svg xmlns="http://www.w3.org/2000/svg" width="32" height="32" viewBox="0 0 24 24">
    <path d="M10.585938 10.179688C10.664062 10.039062 10.660156 9.863281 10.574219 9.722656L8.308594 6.097656C8.144531 5.835938 7.707031 5.835938 7.539062 6.097656L5.277344 9.722656C5.1875 9.863281 5.183594 10.039062 5.265625 10.179688 5.34375 10.324219 5.496094 10.414062 5.660156 10.414062L10.1875 10.414062C10.351562 10.414062 10.503906 10.324219 10.585938 10.179688zM6.476562 9.507812L7.925781 7.195312 9.371094 9.507812zM16.460938 6.101562C16.292969 5.835938 15.855469 5.835938 15.691406 6.101562L13.429688 9.722656C13.339844 9.863281 13.335938 10.039062 13.414062 10.183594 13.496094 10.324219 13.648438 10.414062 13.8125 10.414062L18.339844 10.414062C18.503906 10.414062 18.65625 10.324219 18.734375 10.179688 18.816406 10.039062 18.8125 9.863281 18.722656 9.722656zM14.628906 9.507812L16.074219 7.195312 17.523438 9.507812zM15.566406 13.609375C13.332031 13.894531 10.667969 13.894531 8.433594 13.609375 6.921875 13.421875 6.574219 14.472656 6.128906 16.210938 5.648438 18.070312 8.566406 19.855469 8.597656 19.871094 8.777344 19.972656 9.039062 19.953125 9.179688 19.804688 11.089844 17.804688 12.675781 17.808594 14.835938 19.824219 14.90625 19.886719 15.003906 19.945312 15.132812 19.945312 15.222656 19.945312 15.324219 19.917969 15.441406 19.847656 15.472656 19.832031 18.347656 18.066406 17.871094 16.210938 17.425781 14.472656 17.074219 13.421875 15.566406 13.609375zM16.835938 15.847656L15.621094 15.847656 15.621094 14.515625C15.640625 14.511719 15.660156 14.511719 15.679688 14.507812 16.179688 14.441406 16.421875 14.417969 16.835938 15.847656zM14.71875 18.535156C13.9375 17.945312 13.1875 17.589844 12.453125 17.46875L12.453125 16.753906 14.71875 16.753906zM9.28125 16.753906L11.546875 16.753906 11.546875 17.441406C10.785156 17.523438 10.03125 17.871094 9.28125 18.480469zM11.546875 15.847656L9.28125 15.847656 9.28125 14.609375C10.015625 14.675781 10.777344 14.710938 11.546875 14.722656zM12.453125 15.847656L12.453125 14.722656C13.222656 14.710938 13.984375 14.675781 14.71875 14.609375L14.71875 15.847656zM8.320312 14.507812C8.339844 14.511719 8.359375 14.511719 8.378906 14.515625L8.378906 15.847656 7.164062 15.847656C7.578125 14.417969 7.816406 14.441406 8.320312 14.507812zM6.988281 16.75C7 16.75 7.007812 16.753906 7.019531 16.753906L8.378906 16.753906 8.378906 18.613281C7.796875 18.136719 7.070312 17.398438 6.988281 16.75zM15.621094 18.613281L15.621094 16.753906 16.980469 16.753906C16.992188 16.753906 17 16.75 17.011719 16.75 16.929688 17.398438 16.203125 18.136719 15.621094 18.613281zM15.621094 18.613281"/>
    <path d="M 21.828125 11.59375 C 21.710938 11.476562 21.609375 11.351562 21.515625 11.222656 C 21.503906 11.207031 21.488281 11.1875 21.476562 11.171875 C 21.382812 11.039062 21.300781 10.902344 21.230469 10.757812 C 21.226562 10.75 21.222656 10.742188 21.222656 10.738281 C 21.074219 10.4375 20.980469 10.117188 20.933594 9.792969 C 20.933594 9.785156 20.929688 9.773438 20.929688 9.765625 C 20.910156 9.605469 20.898438 9.445312 20.902344 9.285156 C 20.902344 9.269531 20.90625 9.257812 20.90625 9.242188 C 20.910156 9.082031 20.925781 8.925781 20.957031 8.769531 C 20.957031 8.765625 20.957031 8.761719 20.957031 8.761719 C 20.988281 8.605469 21.03125 8.449219 21.082031 8.300781 C 21.089844 8.277344 21.097656 8.257812 21.105469 8.238281 C 21.160156 8.089844 21.226562 7.949219 21.304688 7.808594 C 21.445312 7.558594 21.621094 7.320312 21.828125 7.113281 C 21.871094 7.070312 21.90625 7.019531 21.925781 6.964844 C 21.972656 6.855469 21.972656 6.730469 21.925781 6.617188 C 21.882812 6.507812 21.792969 6.417969 21.683594 6.375 C 21.628906 6.351562 21.566406 6.339844 21.507812 6.339844 C 20.257812 6.339844 18.851562 5.5625 18.222656 4.425781 C 18.21875 4.417969 18.214844 4.410156 18.210938 4.402344 C 18.164062 4.320312 18.125 4.238281 18.089844 4.152344 C 18.082031 4.132812 18.074219 4.113281 18.066406 4.09375 C 18.039062 4.019531 18.011719 3.945312 17.988281 3.867188 C 17.984375 3.839844 17.976562 3.816406 17.96875 3.789062 C 17.949219 3.714844 17.933594 3.636719 17.921875 3.5625 C 17.917969 3.535156 17.910156 3.507812 17.90625 3.480469 C 17.894531 3.378906 17.886719 3.273438 17.886719 3.167969 C 17.886719 2.917969 17.683594 2.71875 17.433594 2.71875 L 15.621094 2.71875 L 15.621094 1.042969 C 15.621094 0.46875 15.15625 0 14.578125 0 L 9.421875 0 C 8.84375 0 8.378906 0.46875 8.378906 1.042969 L 8.378906 2.71875 L 4.300781 2.71875 C 3.054688 2.71875 2.039062 3.734375 2.039062 4.980469 L 2.039062 9.507812 C 2.039062 9.566406 2.050781 9.625 2.070312 9.679688 C 2.09375 9.734375 2.128906 9.785156 2.171875 9.828125 C 3.40625 11.066406 3.40625 12.933594 2.171875 14.171875 C 2.128906 14.214844 2.09375 14.265625 2.070312 14.320312 C 2.050781 14.375 2.039062 14.433594 2.039062 14.492188 L 2.039062 15.910156 C 2.039062 16.773438 2.441406 17.554688 3.117188 17.992188 C 4.035156 18.585938 4.550781 19.679688 4.464844 20.847656 C 4.4375 21.195312 4.558594 21.542969 4.792969 21.796875 C 5.019531 22.042969 5.328125 22.175781 5.660156 22.183594 L 5.660156 22.957031 C 5.660156 23.53125 6.128906 24 6.703125 24 L 17.296875 24 C 17.871094 24 18.339844 23.53125 18.339844 22.957031 L 18.339844 22.1875 L 19.699219 22.1875 C 20.949219 22.1875 21.964844 21.171875 21.964844 19.925781 L 21.964844 11.914062 C 21.964844 11.855469 21.953125 11.796875 21.929688 11.742188 C 21.90625 11.6875 21.871094 11.636719 21.828125 11.59375 Z M 9.28125 1.042969 C 9.28125 0.96875 9.34375 0.90625 9.421875 0.90625 L 14.578125 0.90625 C 14.65625 0.90625 14.71875 0.96875 14.71875 1.042969 L 14.71875 2.71875 L 9.28125 2.71875 Z M 17.433594 22.957031 C 17.433594 23.03125 17.371094 23.09375 17.296875 23.09375 L 6.703125 23.09375 C 6.628906 23.09375 6.566406 23.03125 6.566406 22.957031 L 6.566406 22.1875 L 17.433594 22.1875 Z M 21.054688 19.925781 C 21.054688 20.671875 20.445312 21.28125 19.699219 21.28125 L 5.695312 21.28125 C 5.605469 21.28125 5.519531 21.246094 5.457031 21.179688 C 5.390625 21.109375 5.359375 21.015625 5.367188 20.914062 C 5.480469 19.417969 4.804688 18.007812 3.609375 17.230469 C 3.199219 16.964844 2.945312 16.457031 2.945312 15.910156 L 2.945312 14.671875 C 2.972656 14.640625 2.996094 14.609375 3.019531 14.578125 C 3.0625 14.53125 3.101562 14.488281 3.140625 14.4375 C 3.183594 14.382812 3.226562 14.324219 3.269531 14.265625 C 3.304688 14.214844 3.339844 14.167969 3.371094 14.117188 C 3.410156 14.058594 3.445312 13.996094 3.480469 13.9375 C 3.511719 13.886719 3.539062 13.835938 3.566406 13.785156 C 3.597656 13.722656 3.628906 13.660156 3.65625 13.59375 C 3.679688 13.542969 3.707031 13.492188 3.726562 13.441406 C 3.753906 13.375 3.777344 13.308594 3.800781 13.242188 C 3.816406 13.191406 3.835938 13.140625 3.851562 13.089844 C 3.871094 13.019531 3.890625 12.945312 3.90625 12.875 C 3.917969 12.824219 3.929688 12.777344 3.941406 12.730469 C 3.957031 12.648438 3.964844 12.570312 3.976562 12.488281 C 3.984375 12.445312 3.992188 12.40625 3.996094 12.367188 C 4.019531 12.121094 4.019531 11.878906 3.996094 11.632812 C 3.992188 11.59375 3.984375 11.554688 3.976562 11.511719 C 3.964844 11.433594 3.957031 11.351562 3.941406 11.269531 C 3.929688 11.222656 3.917969 11.175781 3.90625 11.125 C 3.890625 11.054688 3.871094 10.984375 3.851562 10.910156 C 3.835938 10.859375 3.816406 10.808594 3.800781 10.757812 C 3.777344 10.691406 3.753906 10.625 3.726562 10.558594 C 3.707031 10.507812 3.679688 10.457031 3.65625 10.40625 C 3.628906 10.339844 3.597656 10.277344 3.566406 10.214844 C 3.539062 10.164062 3.511719 10.113281 3.480469 10.0625 C 3.445312 10 3.410156 9.941406 3.371094 9.882812 C 3.339844 9.832031 3.304688 9.78125 3.269531 9.734375 C 3.226562 9.675781 3.183594 9.617188 3.140625 9.5625 C 3.101562 9.511719 3.0625 9.46875 3.019531 9.421875 C 2.996094 9.390625 2.972656 9.359375 2.945312 9.328125 L 2.945312 4.980469 C 2.945312 4.230469 3.554688 3.621094 4.300781 3.621094 L 17.011719 3.621094 C 17.027344 3.757812 17.054688 3.886719 17.085938 4.015625 C 17.085938 4.015625 17.089844 4.015625 17.089844 4.015625 C 17.488281 5.601562 18.964844 6.746094 20.433594 7.109375 C 20.496094 7.125 20.527344 7.164062 20.539062 7.195312 C 20.550781 7.222656 20.5625 7.277344 20.527344 7.339844 C 20.515625 7.355469 20.511719 7.375 20.503906 7.390625 C 20.414062 7.550781 20.339844 7.714844 20.273438 7.882812 C 20.253906 7.929688 20.242188 7.976562 20.222656 8.023438 C 20.175781 8.171875 20.132812 8.320312 20.097656 8.46875 C 20.089844 8.503906 20.078125 8.539062 20.070312 8.574219 C 20.039062 8.746094 20.019531 8.921875 20.011719 9.09375 C 20.007812 9.148438 20.003906 9.199219 20.003906 9.25 C 20 9.429688 20.003906 9.605469 20.023438 9.78125 C 20.023438 9.8125 20.03125 9.839844 20.035156 9.871094 C 20.054688 10.039062 20.089844 10.207031 20.132812 10.371094 C 20.136719 10.398438 20.144531 10.425781 20.152344 10.453125 C 20.199219 10.632812 20.265625 10.8125 20.339844 10.984375 C 20.355469 11.015625 20.367188 11.042969 20.378906 11.070312 C 20.460938 11.246094 20.550781 11.414062 20.65625 11.578125 C 20.660156 11.582031 20.660156 11.582031 20.660156 11.585938 C 20.765625 11.746094 20.886719 11.894531 21.015625 12.042969 C 21.03125 12.058594 21.042969 12.082031 21.058594 12.097656 L 21.058594 19.925781 Z M 21.054688 19.925781"/>
</svg>

<svg xmlns="http://www.w3.org/2000/svg" width="32" height="32" viewBox="0 0 24 24">
    <path d="M10.586 10.18a.456.456 0 0 0-.012-.457L8.31 6.098c-.164-.262-.602-.262-.77 0L5.277 9.723a.438.438 0 0 0-.011.457c.078.144.23.234.394.234h4.527a.46.46 0 0 0 .399-.234zm-4.11-.672l1.45-2.313L9.37 9.508zm0 0M16.46 6.102c-.167-.266-.605-.266-.769 0l-2.261 3.62a.454.454 0 0 0-.016.462c.082.14.234.23.399.23h4.527c.164 0 .316-.09.394-.234a.438.438 0 0 0-.011-.457zM14.63 9.508l1.445-2.313 1.45 2.313zm0 0M15.566 13.61a29.843 29.843 0 0 1-7.132 0c-1.512-.188-1.86.863-2.305 2.6-.48 1.86 2.437 3.645 2.469 3.661.18.102.441.082.582-.066 1.91-2 3.496-1.996 5.656.02.07.062.168.12.297.12.09 0 .191-.027.308-.097.032-.016 2.907-1.782 2.43-3.637-.445-1.738-.797-2.79-2.305-2.602zm1.27 2.238H15.62v-1.332c.02-.004.04-.004.059-.008.5-.067.742-.09 1.156 1.34zm-2.117 2.687c-.781-.59-1.531-.945-2.266-1.066v-.715h2.266zM9.28 16.754h2.266v.687c-.762.082-1.516.43-2.266 1.04zm2.266-.906H9.28v-1.239c.735.067 1.496.102 2.266.114zm.906 0v-1.125c.77-.012 1.531-.047 2.266-.114v1.239zm-4.133-1.34c.02.004.04.004.059.008v1.332H7.164c.414-1.43.652-1.407 1.156-1.34zM6.988 16.75c.012 0 .02.004.032.004h1.359v1.86c-.582-.477-1.309-1.216-1.39-1.864zm8.633 1.863v-1.86h1.36c.011 0 .019-.003.03-.003-.081.648-.808 1.387-1.39 1.863zm0 0"/>
    <path d="M21.828 11.594a3.084 3.084 0 0 1-.312-.371l-.04-.051a2.964 2.964 0 0 1-.253-.434 3.152 3.152 0 0 1-.29-.945l-.003-.027c-.02-.16-.032-.32-.028-.48 0-.016.004-.028.004-.044.004-.16.02-.316.051-.472v-.008a3.643 3.643 0 0 1 .148-.524 3.215 3.215 0 0 1 .723-1.125.41.41 0 0 0 .098-.148.447.447 0 0 0 0-.348.455.455 0 0 0-.418-.277c-1.25 0-2.656-.777-3.285-1.914l-.012-.024a2.102 2.102 0 0 1-.121-.25l-.024-.058a3.856 3.856 0 0 1-.078-.227 2.334 2.334 0 0 1-.066-.305c-.004-.027-.012-.054-.016-.082a2.74 2.74 0 0 1-.02-.312.45.45 0 0 0-.452-.45H15.62V1.044C15.621.469 15.156 0 14.578 0H9.422c-.578 0-1.043.469-1.043 1.043v1.676H4.3A2.266 2.266 0 0 0 2.039 4.98v4.528c0 .058.012.117.031.172a.479.479 0 0 0 .102.148c1.234 1.238 1.234 3.106 0 4.344a.479.479 0 0 0-.102.148.515.515 0 0 0-.03.172v1.418c0 .863.401 1.645 1.077 2.082.918.594 1.434 1.688 1.348 2.856-.027.347.094.695.328.949.227.246.535.379.867.387v.773c0 .574.469 1.043 1.043 1.043h10.594c.574 0 1.043-.469 1.043-1.043v-.77h1.36a2.266 2.266 0 0 0 2.265-2.261v-8.012a.437.437 0 0 0-.137-.32zM9.281 1.043a.14.14 0 0 1 .14-.137h5.157a.14.14 0 0 1 .14.137v1.676H9.282zm8.153 21.914a.138.138 0 0 1-.137.137H6.703a.138.138 0 0 1-.137-.137v-.77h10.868zm3.62-3.031c0 .746-.609 1.355-1.355 1.355H5.695a.325.325 0 0 1-.238-.101.341.341 0 0 1-.09-.266c.113-1.496-.562-2.906-1.758-3.684-.41-.265-.664-.773-.664-1.32v-1.238c.028-.031.051-.063.075-.094.042-.047.082-.09.12-.14.044-.055.087-.114.13-.172.035-.051.07-.098.101-.149.04-.058.074-.12.11-.18.03-.05.058-.101.085-.152.032-.062.063-.125.09-.191.024-.051.051-.102.07-.153.028-.066.051-.132.075-.199.015-.05.035-.101.05-.152.02-.07.04-.145.055-.215l.035-.145c.016-.082.024-.16.036-.242.007-.043.015-.082.02-.12a3.844 3.844 0 0 0 0-.735c-.005-.04-.013-.078-.02-.121-.012-.078-.02-.16-.036-.242l-.035-.145c-.015-.07-.035-.14-.054-.215-.016-.05-.036-.101-.051-.152a4.116 4.116 0 0 0-.074-.2c-.02-.05-.047-.101-.07-.152-.028-.066-.06-.129-.09-.191-.028-.05-.055-.102-.087-.152a2.75 2.75 0 0 0-.109-.18 1.987 1.987 0 0 0-.101-.149c-.043-.058-.086-.117-.13-.171a2.085 2.085 0 0 0-.12-.141 1.556 1.556 0 0 0-.075-.094V4.98c0-.75.61-1.359 1.356-1.359h12.71a3.2 3.2 0 0 0 .075.395h.004c.398 1.586 1.875 2.73 3.344 3.093a.145.145 0 0 1 .105.086.162.162 0 0 1-.012.145c-.011.015-.015.035-.023.05-.09.16-.164.325-.23.493-.02.047-.032.094-.051.14-.047.149-.09.297-.125.446-.008.035-.02.07-.028.105-.03.172-.05.348-.058.52-.004.054-.008.105-.008.156-.004.18 0 .355.02.531 0 .031.007.059.011.09.02.168.055.336.098.5a3.732 3.732 0 0 0 .246.7c.082.175.172.343.277.507a4.354 4.354 0 0 0 .36.465c.015.016.027.039.043.055v7.828zm0 0"/>
</svg>
